X:1
T:Lijepa naša domovino
T:Josip Runjanin
T:Lijepa naša domovino
T:Antun Mihanović
%%score 1 2 3 4
L:1/8
M:4/4
K:A
V:1 treble nm="Soprano" snm="S."
V:2 treble nm="Alto" snm="A."
V:3 treble-8 nm="Tenor" snm="T."
V:4 bass nm="Bass" snm="B."
V:1
!f! c2 c2 c3 B |!>(! B A A3 (E2 E)!>)! |!p! D C DF F4 ||1 E D CD (E2 E) z :|2 E E G2 (E2 E) z || %5
w: Lije- pa na- ša|do- mo- vi- no, *|oj ju- na- * čka|Ze- mljo mi- * la, *|sre- tna bi- la! *|
w: Sta- re sla- ve|dje- do- vi- no, *|da bi va- * zda|si- lu gu- * bi, *|Hr- vat lju- bi! *|
w: Te- ci Dra- vo,|Sa- vo te- ci, *|nit' ti Du- * nav|||
w: Si- nje mo- re|svije- tu re- ci, *|da svoj na- * rod|||
!mf! G2 G2 G3 F | G2 GA B3 G | B B B B B2 A2 |!p! (G2 F2) (E2 E) z | c2 c2!f! c3 B | %10
w: Mi- la ka- no|si nam * sla- vna|mi- la si nam ti je-|di- * na _|mi- la ku- da|
w: Dok- mu nji- ve|sun- ce * gri- je,|dok mu hra- šće bu- ra|vi- * je, *|dok mu mrt- ve|
w: |||||
w: |||||
 B A A2!p! (E2 E) z | D C DE F4 | G G B2!f! (A2 A) z |] %13
w: si nam rav- na, *|mi- la ku- * da|si pla- ni- na! *|
w: gro- bak kri- je, *|dok mu ži- * vo|sr- ce- bi- je! *|
w: |||
w: |||
V:2
!f! A2 A2 A3 G |!>(! G E E3 (C2 C)!>)! |!p! B, ^A, B,C D4 ||1 C B, A,B, (C2 C) z :|2 %4
 E E G2 (E2 E) z ||!mf! E2 E2 E3 ^D | E2 E2 F3 E | ^D D ^E E F2 F2 |!p! (E2 ^D2) (E2 E) z | %9
 A2 A2!f! A3 G | G E E2!p! (C2 C) z | B, ^A, B,C D4 | E E G2!f! (E2 E) z |] %13
V:3
!f! c'2 c'2 c'3 c' |!>(! c' a a3 (f2 f)!>)! |!p! c c c2 c4 ||1 ff f2 (f2 f) z :|2 %4
 g g b2 (a2 a) z ||!mf! g2 g2 g3 g | g2 g2 g3 g | g g a a a2 a2 |!p! g4 (e2 e) z | %9
 c'2 c'2!f! c'3 c' | c' a a2!p! (f2 f) z | cc c2 c4 | g g b2!f! (a2 a) z |] %13
V:4
!f! A,2 A,2 A,3 E, |!>(! E, A, A,3 (A,2 A,)!>)! |!p! E, E, E,2 E,4 ||1 A,A, A,2 (A,2 A,) z :|2 %4
 E, E, E,2 (A,2 A,) z ||!mf! E,2 E,2 E,3 B,, | E,2 E,F, G,3 E, | G, G, C, C, F,2 F,2 | %8
!p! (B,2 B,,2) (E,2 E,) z | A,2 A,2!f! A,3 E, | E, A, A,2!p! (A,2 A,) z | E,E, E,2 E,4 | %12
 E, E, E,2!f! (A,2 A,) z |] %13

